gama.ui.shared/icons_svg/light/markers/marker.info.svg

<?xml version="1.0" encoding="UTF-8" standalone="no"?>
<!DOCTYPE svg PUBLIC "-//W3C//DTD SVG 1.1//EN" "http://www.w3.org/Graphics/SVG/1.1/DTD/svg11.dtd">
<svg xmlns="http://www.w3.org/2000/svg" xmlns:xl="http://www.w3.org/1999/xlink" version="1.1" xmlns:dc="http://purl.org/dc/elements/1.1/" viewBox="-797.9828 -3737.405 12 12" width="12" height="12">
  <defs/>
  <g id="SOURCES" stroke-opacity="1" fill="none" stroke="none" fill-opacity="1" stroke-dasharray="none">
    <title>SOURCES</title>
    <g id="SOURCES_New">
      <title>New</title>
      <g id="Group_8250">
        <title>markers/marker.info</title>
        <g id="Graphic_8252">
          <circle cx="-791.9828" cy="-3731.405" r="6.00000958741123" fill="white"/>
        </g>
        <g id="Graphic_8251">
          <path d="M -791.9828 -3737.405 C -795.2948 -3737.405 -797.9828 -3734.717 -797.9828 -3731.405 C -797.9828 -3728.093 -795.2948 -3725.405 -791.9828 -3725.405 C -788.6708 -3725.405 -785.9828 -3728.093 -785.9828 -3731.405 C -785.9828 -3734.717 -788.6708 -3737.405 -791.9828 -3737.405 Z M -791.3828 -3728.405 L -792.5828 -3728.405 L -792.5828 -3732.005 L -791.3828 -3732.005 L -791.3828 -3728.405 Z M -791.3828 -3733.205 L -792.5828 -3733.205 L -792.5828 -3734.405 L -791.3828 -3734.405 L -791.3828 -3733.205 Z" fill="#5c76a2"/>
        </g>
      </g>
    </g>
  </g>
</svg>

<svg height="12" viewBox="-797.983 -3737.405 12 12" width="12" xmlns="http://www.w3.org/2000/svg"><g fill="none"><circle cx="-791.983" cy="-3731.405" fill="#fff" r="6"/><path d="m-791.9828-3737.405c-3.312 0-6 2.688-6 6s2.688 6 6 6 6-2.688 6-6-2.688-6-6-6zm.6 9h-1.2v-3.6h1.2zm0-4.8h-1.2v-1.2h1.2z" fill="#5c76a2"/></g></svg>
